taccsite_cms/static/site_cms/img/org_logos/linkedin.svg

<?xml version="1.0" encoding="UTF-8" standalone="no"?>
<!DOCTYPE svg PUBLIC "-//W3C//DTD SVG 1.1//EN" "http://www.w3.org/Graphics/SVG/1.1/DTD/svg11.dtd">
<svg id="linkedin-icon" viewBox="0 0 24 24" version="1.1" xmlns="http://www.w3.org/2000/svg" xmlns:xlink="http://www.w3.org/1999/xlink" xml:space="preserve">
    <g transform="matrix(1.19998,0,0,1.19998,-2.3998,-2.3998)">
        <path d="M20.55,2L3.45,2C2.662,2 2.011,2.642 2,3.43L2,20.57C2.011,21.358 2.662,22 3.45,22L20.55,22C21.338,22 21.989,21.358 22,20.57L22,3.43C21.989,2.642 21.338,2 20.55,2ZM8.09,18.74L5.09,18.74L5.09,9.74L8.09,9.74L8.09,18.74ZM6.59,8.48C5.734,8.48 5.03,7.776 5.03,6.92C5.03,6.064 5.734,5.36 6.59,5.36C6.649,5.353 6.708,5.35 6.767,5.35C7.628,5.35 8.337,6.059 8.337,6.92C8.337,7.781 7.628,8.49 6.767,8.49C6.708,8.49 6.649,8.487 6.59,8.48ZM18.91,18.74L15.91,18.74L15.91,13.91C15.91,12.7 15.48,11.91 14.39,11.91C13.701,11.915 13.084,12.352 12.85,13C12.772,13.235 12.738,13.483 12.75,13.73L12.75,18.73L9.75,18.73L9.75,9.73L12.75,9.73L12.75,11C13.305,10.038 14.35,9.459 15.46,9.5C17.46,9.5 18.91,10.79 18.91,13.56L18.91,18.74Z" />
    </g>
</svg>

<svg xmlns="http://www.w3.org/2000/svg" id="linkedin-icon" viewBox="0 0 24 24"><path d="M20.47,2H3.53A1.45,1.45,0,0,0,2.06,3.43V20.57A1.45,1.45,0,0,0,3.53,22H20.47a1.45,1.45,0,0,0,1.47-1.43V3.43A1.45,1.45,0,0,0,20.47,2ZM8.09,18.74h-3v-9h3ZM6.59,8.48h0a1.56,1.56,0,1,1,0-3.12,1.57,1.57,0,1,1,0,3.12ZM18.91,18.74h-3V13.91c0-1.21-.43-2-1.52-2A1.65,1.65,0,0,0,12.85,13a2,2,0,0,0-.1.73v5h-3s0-8.18,0-9h3V11A3,3,0,0,1,15.46,9.5c2,0,3.45,1.29,3.45,4.06Z"/></svg>
